X: 2
P: Polska efter Kristian Oskarsson #1
O: F\"ollinge
N: Handwritten MS
M: 3/4
L: 1/8
K: A
|: G>B (3B(cB) G>B | A>A c(dc) A>c | e(a/g/ f)(e d)c | B>A GA (3B(AG) | A>c c>A (B2 || B)>B (3B(cB) G>B |
| A>A c(dc) A>c | e(a/g/ f)(e d)c | B>A GA (3B(AG) | A2 A3 A :: e>a a>e cd | (3e(fe) (3d(ed) ce |
| e>f f>e cd | (3e(fe) d>c Ae || e>a a>e cd | (3e(fe) (3d(ed) cA | B>c (3d(Bd) (3c(Ac) | (3B(GB) A4 :|
